{ "compressionlevel":-1,
 "height":5,
 "infinite":false,
 "layers":[
        {
         "data":[0, 0, 0, 0, 0, 0, 0, 0, 0, 0, 0, 0, 0,
            1, 1, 1, 1, 0, 1, 1, 1, 0, 1, 1, 1, 1,
            0, 0, 1, 0, 0, 0, 1, 0, 0, 0, 1, 0, 0,
            0, 0, 0, 0, 0, 0, 0, 0, 0, 0, 0, 0, 0,
            0, 0, 0, 0, 0, 0, 0, 0, 0, 0, 0, 0, 0],
         "height":5,
         "id":1,
         "name":"block",
         "opacity":1,
         "tintcolor":"#000000",
         "type":"tilelayer",
         "visible":true,
         "width":13,
         "x":0,
         "y":0
        },
        {
         "id":15,
         "layers":[
                {
                 "draworder":"topdown",
                 "id":16,
                 "name":"chair",
                 "objects":[
                        {
                         "gid":5,
                         "height":96.7209,
                         "id":64,
                         "name":"",
                         "opacity":1,
                         "rotation":0,
                         "type":"",
                         "visible":true,
                         "width":65.143,
                         "x":87.824,
                         "y":224.587
                        }],
                 "opacity":1,
                 "type":"objectgroup",
                 "visible":false,
                 "x":0,
                 "y":0
                },
                {
                 "draworder":"index",
                 "id":13,
                 "name":"desk",
                 "objects":[
                        {
                         "gid":3,
                         "height":162.073,
                         "id":62,
                         "name":"",
                         "opacity":1,
                         "rotation":0,
                         "type":"",
                         "visible":false,
                         "width":261.722,
                         "x":27.6555,
                         "y":363.586
                        },
                        {
                         "gid":2,
                         "height":110.21,
                         "id":63,
                         "name":"",
                         "opacity":1,
                         "rotation":0,
                         "type":"",
                         "visible":true,
                         "width":191.246,
                         "x":17.2358,
                         "y":175.651
                        },
                        {
                         "gid":4,
                         "height":48.2974,
                         "id":70,
                         "name":"",
                         "opacity":0.58,
                         "rotation":0,
                         "type":"",
                         "visible":true,
                         "width":77.1256,
                         "x":73.488,
                         "y":84.851
                        }],
                 "opacity":1,
                 "type":"objectgroup",
                 "visible":true,
                 "x":0,
                 "y":0
                },
                {
                 "draworder":"topdown",
                 "id":14,
                 "name":"computer",
                 "objects":[
                        {
                         "height":33.4688,
                         "id":74,
                         "name":"container",
                         "opacity":1,
                         "rotation":0,
                         "type":"",
                         "visible":true,
                         "width":74.2559,
                         "x":75.372,
                         "y":39
                        }],
                 "opacity":1,
                 "type":"objectgroup",
                 "visible":true,
                 "x":0,
                 "y":0
                }],
         "name":"workstation",
         "opacity":1,
         "type":"group",
         "visible":true,
         "x":0,
         "y":0
        }],
 "nextlayerid":6,
 "nextobjectid":1,
 "orientation":"orthogonal",
 "renderorder":"right-down",
 "tiledversion":"1.12.1",
 "tileheight":64,
 "tilesets":[
        {
         "firstgid":1,
         "source":"assets.tsx"
        }],
 "tilewidth":64,
 "type":"map",
 "version":"1.10",
 "width":13
}
